svg/fluentui-system-icons/ic_fluent_document_sync_24_regular.svg

<svg width="24" height="24" viewBox="0 0 24 24" fill="none" xmlns="http://www.w3.org/2000/svg">
<path d="M18.5 20C18.5 20.275 18.276 20.5 18 20.5H12.2678C11.9806 21.051 11.6168 21.5557 11.1904 22H18C19.104 22 20 21.104 20 20V9.828C20 9.298 19.789 8.789 19.414 8.414L13.585 2.586C13.57 2.57105 13.5531 2.55808 13.5363 2.5452C13.5238 2.53567 13.5115 2.5262 13.5 2.516C13.429 2.452 13.359 2.389 13.281 2.336C13.2557 2.31894 13.2281 2.30548 13.2005 2.29207C13.1845 2.28426 13.1685 2.27647 13.153 2.268C13.1363 2.25859 13.1197 2.24897 13.103 2.23933C13.0488 2.20797 12.9944 2.17648 12.937 2.152C12.74 2.07 12.528 2.029 12.313 2.014C12.2933 2.01274 12.2738 2.01008 12.2542 2.00741C12.2271 2.00371 12.1999 2 12.172 2H6C4.896 2 4 2.896 4 4V11.4982C4.47417 11.3004 4.97679 11.1572 5.5 11.0764V4C5.5 3.725 5.724 3.5 6 3.5H12V8C12 9.104 12.896 10 14 10H18.5V20ZM13.5 4.621L17.378 8.5H14C13.724 8.5 13.5 8.275 13.5 8V4.621ZM1 17.5C1 20.5376 3.46243 23 6.5 23C9.53757 23 12 20.5376 12 17.5C12 14.4624 9.53757 12 6.5 12C3.46243 12 1 14.4624 1 17.5ZM9.5 14C9.77614 14 10 14.2239 10 14.5V16.5C10 16.7761 9.77614 17 9.5 17H7.5C7.22386 17 7 16.7761 7 16.5C7 16.2239 7.22386 16 7.5 16H8.50027C8.04362 15.392 7.31737 15 6.50002 15C5.66657 15 4.9283 15.4073 4.47325 16.036C4.31133 16.2597 3.99874 16.3098 3.77505 16.1478C3.55136 15.9859 3.50128 15.6733 3.6632 15.4496C4.29822 14.5724 5.33229 14 6.50002 14C7.47976 14 8.3651 14.4027 9 15.0506V14.5C9 14.2239 9.22386 14 9.5 14ZM4 19.9494V20.5C4 20.7761 3.77614 21 3.5 21C3.22386 21 3 20.7761 3 20.5V18.5C3 18.2239 3.22386 18 3.5 18H5.5C5.77614 18 6 18.2239 6 18.5C6 18.7761 5.77614 19 5.5 19H4.49976C4.95641 19.608 5.68266 20 6.50002 20C7.26635 20 7.95179 19.6558 8.41116 19.1118C8.58932 18.9008 8.90478 18.8742 9.11576 19.0523C9.32675 19.2305 9.35336 19.546 9.17521 19.7569C8.53396 20.5164 7.57322 21 6.50002 21C5.52026 21 4.6349 20.5973 4 19.9494Z" fill="#212121"/>
</svg>

<svg xmlns="http://www.w3.org/2000/svg" width="24" height="24"><path d="M18.5 20a.5.5 0 0 1-.5.5h-5.732A6.518 6.518 0 0 1 11.19 22H18a2 2 0 0 0 2-2V9.828a2 2 0 0 0-.586-1.414l-5.829-5.828a.491.491 0 0 0-.049-.04.63.63 0 0 1-.036-.03 2.072 2.072 0 0 0-.219-.18.652.652 0 0 0-.08-.044l-.048-.024-.05-.029c-.054-.031-.109-.063-.166-.087a1.977 1.977 0 0 0-.624-.138.56.56 0 0 1-.059-.007.605.605 0 0 0-.082-.007H6a2 2 0 0 0-2 2v7.498a6.451 6.451 0 0 1 1.5-.422V4a.5.5 0 0 1 .5-.5h6V8a2 2 0 0 0 2 2h4.5v10Zm-5-15.379L17.378 8.5H14a.5.5 0 0 1-.5-.5V4.621ZM1 17.5a5.5 5.5 0 1 0 11 0 5.5 5.5 0 0 0-11 0ZM9.5 14a.5.5 0 0 1 .5.5v2a.5.5 0 0 1-.5.5h-2a.5.5 0 0 1 0-1h1a2.496 2.496 0 0 0-2-1c-.833 0-1.572.407-2.027 1.036a.5.5 0 1 1-.81-.586A3.496 3.496 0 0 1 6.5 14c.98 0 1.865.403 2.5 1.05v-.55a.5.5 0 0 1 .5-.5ZM4 19.95v.55a.5.5 0 0 1-1 0v-2a.5.5 0 0 1 .5-.5h2a.5.5 0 0 1 0 1h-1c.456.608 1.183 1 2 1 .766 0 1.452-.344 1.911-.888a.5.5 0 0 1 .764.645A3.493 3.493 0 0 1 6.5 21 3.49 3.49 0 0 1 4 19.95Z"/></svg>
